svgs/4411.svg

<svg xmlns="http://www.w3.org/2000/svg" viewBox="0 0 192 192"><path d="M44.338 158.469v-4.217H28.526v-3.066c0-2.273 2.067-5.543 7.996-12.65 7.86-9.42 8.076-9.583 12.65-9.583h4.653v10.014c0 9.98.01 10.015 2.636 10.015 2.108 0 2.635.527 2.635 2.635 0 2.108-.527 2.635-2.635 2.635-2.372 0-2.636.422-2.636 4.217v4.217h-9.487Zm0-14.839v-5.352l-2.834 3.507a519.872 519.872 0 0 1-4.38 5.352c-1.432 1.709-1.223 1.845 2.834 1.845h4.38Zm39.004 14.839v-4.217H67.529v-3.066c0-2.273 2.067-5.543 7.997-12.65 7.86-9.42 8.075-9.583 12.65-9.583h4.653v10.014c0 9.98.01 10.015 2.635 10.015 2.109 0 2.636.527 2.636 2.635 0 2.108-.527 2.635-2.636 2.635-2.371 0-2.635.422-2.635 4.217v4.217h-9.487Zm0-14.293c0-5.422-.561-5.358-5.283.604l-3.328 4.202h8.611Zm23.191 15.874c0-2.309.457-2.635 3.69-2.635h3.689v-17.921h-3.689c-3.243 0-3.69-.322-3.69-2.661 0-2.13.649-2.792 3.246-3.311 1.786-.358 3.797-1.532 4.471-2.609.84-1.346 2.465-1.96 5.186-1.96h3.963v28.462h3.69c3.233 0 3.69.326 3.69 2.635v2.636h-24.246Zm32.679.064c0-2.211.554-2.618 3.953-2.899l3.953-.327.306-8.697.306-8.697h-4.259c-3.823 0-4.259-.266-4.259-2.594 0-2.124.745-2.796 4.108-3.701 2.259-.609 4.379-1.813 4.711-2.676.376-.981 2-1.57 4.325-1.57h3.722v28.462h3.69c3.232 0 3.689.326 3.689 2.635v2.636h-24.245v-2.572Zm-89.34-45.54c-2.865-.635-2.853-.268-.335-10.113 2.731-10.679 7.355-19.52 13.338-25.503l4.941-4.941 2.756 2.629c3.571 3.406 12.875 7.683 19.885 9.14 3.69.767 5.535 1.675 5.535 2.723 0 1.01-.814 1.455-2.274 1.243-1.251-.181-2.467.236-2.703.927-.626 1.832 9.295 4.526 19.391 5.266l8.617.631-.57-4.245c-.454-3.389-.124-4.691 1.638-6.452 3.959-3.959 8.185.509 6.84 7.232-.621 3.106-.554 3.163 3.716 3.163 4.652 0 6.22 2.427 2.24 3.468-1.16.303-2.108 1.07-2.108 1.704 0 .634.948 1.153 2.108 1.153 1.226 0 2.108.703 2.108 1.68 0 .924-.949 1.928-2.108 2.231-2.153.563-2.962 2.414-1.054 2.414.579 0 1.054.773 1.054 1.717 0 1.491-.962 1.623-7.277 1.001-18.527-1.826-36.72-8.71-45.061-17.051-2.553-2.553-5.136-4.642-5.739-4.642-2.394 0 2.875 10.136 7.349 14.139 2.102 1.88 2.137 2.144.521 3.931-4.126 4.559-23.948 8.519-32.808 6.555Zm-17.493-12.849c-2.758-3.047-2.169-7.015 1.499-10.101 3.444-2.899 4.698-3.303 13.221-4.264l5.396-.609-2.688 6.84c-2.131 5.422-3.392 7.175-6.083 8.451-4.557 2.163-9.219 2.033-11.345-.317Zm1.556-18.183c-15.028-2.953-22.326-13.072-15.16-21.021 3.718-4.124 9.176-5.105 15.331-2.754 5.602 2.139 14.477 11.038 18.011 18.059l2.654 5.271-3.899.73c-5.064.948-11.188.845-16.937-.285Zm49.757-3.037c-4.698-1.119-12.74-6.021-14.126-8.61-.962-1.799-.78-2.445 1.053-3.729 2.911-2.039 1.797-3.776-1.468-2.289-6.751 3.076-11.502-3.533-9.06-12.601.657-2.441 1.445-4.439 1.751-4.439 1.408 0 5.323 2.56 6.851 4.479.93 1.169 2.289 1.925 3.019 1.682.907-.302.441-1.498-1.468-3.766-2.632-3.128-2.71-3.526-1.334-6.812 2.149-5.128 6.73-10.124 11.665-12.722 4.016-2.114 5.937-2.296 25.167-2.379 11.451-.05 20.82.312 20.82.804 0 1.881-5.685 6.047-9.135 6.694-4.143.777-4.206 3.229-.069 2.73 1.893-.228 3.088.332 3.884 1.819 1.008 1.884.79 2.226-1.772 2.775-4.697 1.006-7.829 2.526-7.223 3.507.309.5 2.398.419 4.642-.18 5.566-1.485 7.149-.602 7.955 4.441 1.523 9.525-1.511 16.722-9.673 22.947-7.621 5.813-20.834 8.184-31.479 5.649Zm4.688-4.848c1.289-.903 2.796-1.363 3.348-1.022 1.347.832 6.372-.482 6.372-1.667 0-.516-1.985-.939-4.411-.939-2.426 0-6.528-1.025-9.115-2.277-4.554-2.205-4.749-2.216-6.13-.326-2.015 2.755-1.781 4.344.916 6.232 2.978 2.087 6.04 2.086 9.02-.001Zm12.618-12.88c2.824-2.173 4.501-7.309 3.348-10.25-.723-1.843-.837-1.75-.901.741-.168 6.445-4.089 10.327-10.431 10.327-4.182 0-7.381-2.695-8.166-6.882-.378-2.012-1.168-3.659-1.755-3.659-1.752 0 .066 6.522 2.557 9.173 2.885 3.071 11.664 3.386 15.348.55Zm-3.61-6.2c.381-.382.16-1.336-.491-2.121-.89-1.073-1.541-1.133-2.615-.242-.786.653-1.17 1.608-.852 2.122.678 1.096 2.964 1.235 3.958.241Zm33.391 2.31c0-4.101.271-4.491 4.596-6.592 4.327-2.102 4.639-2.549 5.313-7.63.606-4.575 1.231-5.715 4.1-7.488 4.377-2.704 9.59-2.352 10.022.677.454 3.175-2.958 6.82-7.19 7.681l-3.665.746-.306 6.846-.306 6.846-6.282 1.637-6.282 1.637Zm16.029-2.934c.281-6.923.525-7.673 2.595-7.968 3.328-.474 7.671-4.918 8.408-8.603.616-3.081.84-3.195 6.305-3.195 5.353 0 7.428 1.207 4.203 2.445-3.541 1.358-3.535 21.163.006 22.522 4.032 1.547.301 2.441-10.185 2.441h-11.642Zm22.667 2.767c-1.566-1.566-.628-2.504 2.503-2.504 2.129 0 3.101.455 2.817 1.318-.493 1.495-4.187 2.319-5.32 1.186Zm-.718-6.158c-1.993-2.402-.784-4.043 3.058-4.153 4.119-.119 5.555 2.169 2.681 4.27-2.517 1.841-4.142 1.808-5.739-.117Zm.557-7.846c-1.004-1.625.591-4.312 2.56-4.312 2.282 0 4.666 2.663 3.735 4.17-.837 1.354-5.482 1.458-6.295.142Z"/></svg>

<svg
    xmlns="http://www.w3.org/2000/svg"
    viewBox="0 0 192 192"
    id="vector">
    <g id="group">
        <path
            id="path_6"
            d="M 44.338 158.469 L 44.338 154.252 L 28.526 154.252 L 28.526 151.186 C 28.526 148.913 30.593 145.643 36.522 138.536 C 44.382 129.116 44.598 128.953 49.172 128.953 L 53.825 128.953 L 53.825 138.967 C 53.825 148.947 53.835 148.982 56.461 148.982 C 58.569 148.982 59.096 149.509 59.096 151.617 C 59.096 153.725 58.569 154.252 56.461 154.252 C 54.089 154.252 53.825 154.674 53.825 158.469 L 53.825 162.686 L 44.338 162.686 Z M 44.338 143.63 L 44.338 138.278 L 41.504 141.785 C 39.945 143.714 37.974 146.122 37.124 147.137 C 35.692 148.846 35.901 148.982 39.958 148.982 L 44.338 148.982 Z M 83.342 158.469 L 83.342 154.252 L 67.529 154.252 L 67.529 151.186 C 67.529 148.913 69.596 145.643 75.526 138.536 C 83.386 129.116 83.601 128.953 88.176 128.953 L 92.829 128.953 L 92.829 138.967 C 92.829 148.947 92.839 148.982 95.464 148.982 C 97.573 148.982 98.1 149.509 98.1 151.617 C 98.1 153.725 97.573 154.252 95.464 154.252 C 93.093 154.252 92.829 154.674 92.829 158.469 L 92.829 162.686 L 83.342 162.686 Z M 83.342 144.176 C 83.342 138.754 82.781 138.818 78.059 144.78 L 74.731 148.982 L 83.342 148.982 Z M 106.533 160.05 C 106.533 157.741 106.99 157.415 110.223 157.415 L 113.912 157.415 L 113.912 139.494 L 110.223 139.494 C 106.98 139.494 106.533 139.172 106.533 136.833 C 106.533 134.703 107.182 134.041 109.779 133.522 C 111.565 133.164 113.576 131.99 114.25 130.913 C 115.09 129.567 116.715 128.953 119.436 128.953 L 123.399 128.953 L 123.399 157.415 L 127.089 157.415 C 130.322 157.415 130.779 157.741 130.779 160.05 L 130.779 162.686 L 106.533 162.686 Z M 139.212 160.114 C 139.212 157.903 139.766 157.496 143.165 157.215 L 147.118 156.888 L 147.424 148.191 L 147.73 139.494 L 143.471 139.494 C 139.648 139.494 139.212 139.228 139.212 136.9 C 139.212 134.776 139.957 134.104 143.32 133.199 C 145.579 132.59 147.699 131.386 148.031 130.523 C 148.407 129.542 150.031 128.953 152.356 128.953 L 156.078 128.953 L 156.078 157.415 L 159.768 157.415 C 163 157.415 163.457 157.741 163.457 160.05 L 163.457 162.686 L 139.212 162.686 L 139.212 160.114 Z M 49.872 114.574 C 47.007 113.939 47.019 114.306 49.537 104.461 C 52.268 93.782 56.892 84.941 62.875 78.958 L 67.816 74.017 L 70.572 76.646 C 74.143 80.052 83.447 84.329 90.457 85.786 C 94.147 86.553 95.992 87.461 95.992 88.509 C 95.992 89.519 95.178 89.964 93.718 89.752 C 92.467 89.571 91.251 89.988 91.015 90.679 C 90.389 92.511 100.31 95.205 110.406 95.945 L 119.023 96.576 L 118.453 92.331 C 117.999 88.942 118.329 87.64 120.091 85.879 C 124.05 81.92 128.276 86.388 126.931 93.111 C 126.31 96.217 126.377 96.274 130.647 96.274 C 135.299 96.274 136.867 98.701 132.887 99.742 C 131.727 100.045 130.779 100.812 130.779 101.446 C 130.779 102.08 131.727 102.599 132.887 102.599 C 134.113 102.599 134.995 103.302 134.995 104.279 C 134.995 105.203 134.046 106.207 132.887 106.51 C 130.734 107.073 129.925 108.924 131.833 108.924 C 132.412 108.924 132.887 109.697 132.887 110.641 C 132.887 112.132 131.925 112.264 125.61 111.642 C 107.083 109.816 88.89 102.932 80.549 94.591 C 77.996 92.038 75.413 89.949 74.81 89.949 C 72.416 89.949 77.685 100.085 82.159 104.088 C 84.261 105.968 84.296 106.232 82.68 108.019 C 78.554 112.578 58.732 116.538 49.872 114.574 Z M 32.379 101.725 C 29.621 98.678 30.21 94.71 33.878 91.624 C 37.322 88.725 38.576 88.321 47.099 87.36 L 52.495 86.751 L 49.807 93.591 C 47.676 99.013 46.415 100.766 43.724 102.042 C 39.167 104.205 34.505 104.075 32.379 101.725 Z M 33.935 83.542 C 18.907 80.589 11.609 70.47 18.775 62.521 C 22.493 58.397 27.951 57.416 34.106 59.767 C 39.708 61.906 48.583 70.805 52.117 77.826 L 54.771 83.097 L 50.872 83.827 C 45.808 84.775 39.684 84.672 33.935 83.542 Z M 83.692 80.505 C 78.994 79.386 70.952 74.484 69.566 71.895 C 68.604 70.096 68.786 69.45 70.619 68.166 C 73.53 66.127 72.416 64.39 69.151 65.877 C 62.4 68.953 57.649 62.344 60.091 53.276 C 60.748 50.835 61.536 48.837 61.842 48.837 C 63.25 48.837 67.165 51.397 68.693 53.316 C 69.623 54.485 70.982 55.241 71.712 54.998 C 72.619 54.696 72.153 53.5 70.244 51.232 C 67.612 48.104 67.534 47.706 68.91 44.42 C 71.059 39.292 75.64 34.296 80.575 31.698 C 84.591 29.584 86.512 29.402 105.742 29.319 C 117.193 29.269 126.562 29.631 126.562 30.123 C 126.562 32.004 120.877 36.17 117.427 36.817 C 113.284 37.594 113.221 40.046 117.358 39.547 C 119.251 39.319 120.446 39.879 121.242 41.366 C 122.25 43.25 122.032 43.592 119.47 44.141 C 114.773 45.147 111.641 46.667 112.247 47.648 C 112.556 48.148 114.645 48.067 116.889 47.468 C 122.455 45.983 124.038 46.866 124.844 51.909 C 126.367 61.434 123.333 68.631 115.171 74.856 C 107.55 80.669 94.337 83.04 83.692 80.505 Z M 88.38 75.657 C 89.669 74.754 91.176 74.294 91.728 74.635 C 93.075 75.467 98.1 74.153 98.1 72.968 C 98.1 72.452 96.115 72.029 93.689 72.029 C 91.263 72.029 87.161 71.004 84.574 69.752 C 80.02 67.547 79.825 67.536 78.444 69.426 C 76.429 72.181 76.663 73.77 79.36 75.658 C 82.338 77.745 85.4 77.744 88.38 75.657 Z M 100.998 62.777 C 103.822 60.604 105.499 55.468 104.346 52.527 C 103.623 50.684 103.509 50.777 103.445 53.268 C 103.277 59.713 99.356 63.595 93.014 63.595 C 88.832 63.595 85.633 60.9 84.848 56.713 C 84.47 54.701 83.68 53.054 83.093 53.054 C 81.341 53.054 83.159 59.576 85.65 62.227 C 88.535 65.298 97.314 65.613 100.998 62.777 Z M 97.388 56.577 C 97.769 56.195 97.548 55.241 96.897 54.456 C 96.007 53.383 95.356 53.323 94.282 54.214 C 93.496 54.867 93.112 55.822 93.43 56.336 C 94.108 57.432 96.394 57.571 97.388 56.577 Z M 130.779 58.887 C 130.779 54.786 131.05 54.396 135.375 52.295 C 139.702 50.193 140.014 49.746 140.688 44.665 C 141.294 40.09 141.919 38.95 144.788 37.177 C 149.165 34.473 154.378 34.825 154.81 37.854 C 155.264 41.029 151.852 44.674 147.62 45.535 L 143.955 46.281 L 143.649 53.127 L 143.343 59.973 L 137.061 61.61 L 130.779 63.247 Z M 146.808 55.953 C 147.089 49.03 147.333 48.28 149.403 47.985 C 152.731 47.511 157.074 43.067 157.811 39.382 C 158.427 36.301 158.651 36.187 164.116 36.187 C 169.469 36.187 171.544 37.394 168.319 38.632 C 164.778 39.99 164.784 59.795 168.325 61.154 C 172.357 62.701 168.626 63.595 158.14 63.595 L 146.498 63.595 Z M 169.475 58.72 C 167.909 57.154 168.847 56.216 171.978 56.216 C 174.107 56.216 175.079 56.671 174.795 57.534 C 174.302 59.029 170.608 59.853 169.475 58.72 Z M 168.757 52.562 C 166.764 50.16 167.973 48.519 171.815 48.409 C 175.934 48.29 177.37 50.578 174.496 52.679 C 171.979 54.52 170.354 54.487 168.757 52.562 Z M 169.314 44.716 C 168.31 43.091 169.905 40.404 171.874 40.404 C 174.156 40.404 176.54 43.067 175.609 44.574 C 174.772 45.928 170.127 46.032 169.314 44.716 Z"
            fill="#000000"
            stroke-width="12"/>
    </g>
</svg>
